X: 34
T: Canto delle parete
N: Derived from Ano3091-Canto_delle_parete.krn
C: Anonymous
%%abc-version 2.0
%%abcx-abcm2ps-target-version 5.9.1 (29 Sep 2008)
%%abc-creator hum2abc beta
%%abcx-conversion-date 2019/02/16 20:18:27
%%abc-edited-by Jesse Rodin
%%abc-edited-by Jesse Rodin
%%abcx-initial-encoding-date 2016/03/22/
%%humdrum-veritas 4248608265
%%humdrum-veritas-data 2176581483
%%linebreak <none>
%%barnumbers 0
L: 1/4
M: 4/2
Q: 1/2=120
%%staves [1 2 3 4]
V: 1 clef=treble
V: 2 clef=treble-8
V: 3 clef=treble-8
V: 4 clef=bass
K: F
[V:1] c4c2c2 | 
[V:2] g4g2g2 | 
[V:3] c4e2e2 | 
[V:4] C,4C,2C,2 | 
[V:1] A2A2G2G2 | 
[V:2] c2c2c2c2 | 
[V:3] f2f2e2e2 | 
[V:4] F,2F,2C,2C2 | 
[V:1] c3BA2G2 | 
[V:2] z2c2c2G2 | 
[V:3] f2e2fd2^c | 
[V:4] A,3G,F,2E,2 | 
[V:1] !fermata!F8 | 
[V:2] !fermata!A8 | 
[V:3] !fermata!d8 | 
[V:4] D,4!fermata!D,4 | 
[V:1] F4F2F2 | 
[V:2] d4d2d2 | 
[V:3] A4A2A2 | 
[V:4] D,4D,2D,2 | 
[V:1] D2G4F2 | 
[V:2] d2e2d4 | 
[V:3] B2c2A4 | 
[V:4] G,2C,2D,4 | 
[V:1] G2B2B2B2 | 
[V:2] B2B2B2B2 | 
[V:3] G2d2d2e2 | 
[V:4] E,2G,2G,2G,2 | 
[V:1] A4G4 | 
[V:2] c4c4 | 
[V:3] f2f4e2 | 
[V:4] F,4C,4 | 
[V:1] A4A4 | 
[V:2] c4c4 | 
[V:3] f4f4 | 
[V:4] F,4F,4 | 
[V:1] z2G2c3c | 
[V:2] z2c2g3g | 
[V:3] z2e2e3e | 
[V:4] z2C,2C,3C, | 
[V:1] c2c2A2d2- | 
[V:2] g2g2a2g2 | 
[V:3] e2e2f2d2 | 
[V:4] C2C2F,2B,2 | 
[V:1] d2c2B2A2- | 
[V:2] a3gf3e | 
[V:3] e4d2c2 | 
[V:4] A,4D,2F,2 | 
[V:1] AGG4^F2 | 
[V:2] d2e2d4 | 
[V:3] B2c2A4 | 
[V:4] G,2C,2D,4 | 
[V:1] G8 ]|:  
[V:2] d8 ]|:  
[V:3] G8 ]|:  
[V:4] G,8 ]|:  
[V:1]  [K:F] [K:clef=treble][M:4/2]d4d2d2 | 
[V:2]  [K:F] [K:clef=treble-8][M:4/2]g4g2g2 | 
[V:3]  [K:F] [K:clef=treble-8][M:4/2]d4d2d2 | 
[V:4]  [K:F] [K:clef=bass][M:4/2]G,4G,2G,2 | 
[V:1] f3ed2c2 | 
[V:2] f3fa2a2 | 
[V:3] a3gf2e2 | 
[V:4] D,2D,2D2A,2 | 
[V:1] f2e2d4 | 
[V:2] f2g2d4 | 
[V:3] d2e2f2g2 | 
[V:4] D2C2B,4 | 
[V:1] !fermata!c8 | 
[V:2] !fermata!e8 | 
[V:3] !fermata!a8 | 
[V:4] !fermata!A,8 | 
[V:1] d4d2d2 | 
[V:2] d4f2f2 | 
[V:3] f4d2d2 | 
[V:4] D,4D,2D,2 | 
[V:1] A3GABc2 | 
[V:2] f4z2g2 | 
[V:3] c4f2e2 | 
[V:4] F,3E,D,2C,2 | 
[V:1] B2A4G2 | 
[V:2] f3ed4 | 
[V:3] d2c2B4 | 
[V:4] D,2F,2G,4 | 
[V:1] A8 :|]  
[V:2] d8 :|]  
[V:3] A8 :|]  
[V:4] D,8 :|]  
[V:1]  [K:F] [K:clef=treble][M:4/2]z8 | 
[V:2]  [K:F] [K:clef=treble-8][M:4/2]z8 | 
[V:3]  [K:F] [K:clef=treble-8][M:4/2]A4d2d2 | 
[V:4]  [K:F] [K:clef=bass][M:4/2]z4D,4 | 
[V:1] z8 | 
[V:2] z4z2e2 | 
[V:3] e4c4 | 
[V:4] G,2G,2A,4 | 
[V:1] z8 | 
[V:2] f2f2d2g2 | 
[V:3] z2c2f2e2 | 
[V:4] F,4z2C,2 | 
[V:1] z8 | 
[V:2] f3de2d2- | 
[V:3] d2a2g2f2 | 
[V:4] D,2F,2C,2D,2 | 
[V:1] z8 | 
[V:2] d2^c2d4 | 
[V:3] e4d4 | 
[V:4] A,4D,4 | 
[V:1] z2G2G2G2 | 
[V:2] z2B2B2B2 | 
[V:3] z2d2d2d2 | 
[V:4] z2G,2G,2G,2 | 
[V:1] c4B4 | 
[V:2] c3B/A/B4 | 
[V:3] e2c2d2e2 | 
[V:4] C,4G,4 | 
[V:1] A3GB2A2- | 
[V:2] c4f2e2 | 
[V:3] f3ed2c2 | 
[V:4] F,4B,,2C,2 | 
[V:1] AGG4^F2 | 
[V:2] d2c2d4 | 
[V:3] B2AGA4 | 
[V:4] D,2_E,2D,4 | 
[V:1] !fermata!G8 | 
[V:2] !fermata!d8 | 
[V:3] !fermata!G8 | 
[V:4] !fermata!G,8 | 
[V:1] [M:3/1]A4A4A4 | 
[V:2] [M:3/1]f4f4f4 | 
[V:3] [M:3/1]c4c4c4 | 
[V:4] [M:3/1]F,4F,4F,4 | 
[V:1] c8c4 | 
[V:2] g8g4 | 
[V:3] e8e4 | 
[V:4] C,8C4 | 
[V:1] d8e4 | 
[V:2] d4f4e4 | 
[V:3] f8g4 | 
[V:4] B,4D4C4 | 
[V:1] f6e2d4 | 
[V:2] c8d4 | 
[V:3] a6g2f4 | 
[V:4] F,8B,4 | 
[V:1] c4e4d4 | 
[V:2] g6f2d4 | 
[V:3] e6c2f4 | 
[V:4] C6A,2B,4 | 
[V:1] c8=B4 | 
[V:2] g4g8 | 
[V:3] e4d8 | 
[V:4] C4G,8 | 
[V:1] c12 |]  
[V:2] g12 |]  
[V:3] c12 |]  
[V:4] C,12 |]  



